Shared/Assets.xcassets/music.imageset/music.svg

<svg version="1.1" id="Uploaded to svgrepo.com" xmlns="http://www.w3.org/2000/svg" xmlns:xlink="http://www.w3.org/1999/xlink" x="0px" y="0px"
	 width="32px" height="32px" viewBox="0 0 32 32" style="enable-background:new 0 0 32 32;" xml:space="preserve">
<style type="text/css">
	.puchipuchi_een{fill:#111918;}
</style>
<path class="puchipuchi_een" d="M28,3c0-0.636-0.303-1.234-0.815-1.611c-0.514-0.378-1.177-0.488-1.781-0.298l-16,5
	C8.568,6.352,8,7.125,8,8v14.014c-0.635-0.043-1.304,0.018-1.976,0.198c-2.667,0.715-4.366,3.024-3.794,5.158
	c0.572,2.134,3.198,3.284,5.865,2.57c1.687-0.452,2.982-1.543,3.565-2.824C11.874,26.797,12,26.413,12,26v-9.529l12-3.75v4.293
	c-0.635-0.043-1.304,0.018-1.976,0.198c-2.667,0.715-4.366,3.024-3.794,5.158c0.572,2.134,3.198,3.284,5.865,2.57
	c1.687-0.452,2.982-1.543,3.565-2.824C27.874,21.797,28,21.413,28,21V3z M12,12.279V9.47l12-3.75v2.809L12,12.279z"/>
</svg>

<svg
    xmlns="http://www.w3.org/2000/svg"
    viewBox="0 0 32 32"
    id="vector">
    <path
        id="path"
        d="M 28 3 C 28 2.364 27.697 1.766 27.185 1.389 C 26.671 1.011 26.008 0.901 25.404 1.091 L 9.404 6.091 C 8.568 6.352 8 7.125 8 8 L 8 22.014 C 7.365 21.971 6.696 22.032 6.024 22.212 C 3.357 22.927 1.658 25.236 2.23 27.37 C 2.802 29.504 5.428 30.654 8.095 29.94 C 9.782 29.488 11.077 28.397 11.66 27.116 C 11.874 26.797 12 26.413 12 26 L 12 16.471 L 24 12.721 L 24 17.014 C 23.365 16.971 22.696 17.032 22.024 17.212 C 19.357 17.927 17.658 20.236 18.23 22.37 C 18.802 24.504 21.428 25.654 24.095 24.94 C 25.782 24.488 27.077 23.397 27.66 22.116 C 27.874 21.797 28 21.413 28 21 L 28 3 Z M 12 12.279 L 12 9.47 L 24 5.72 L 24 8.529 L 12 12.279 Z"
        fill="#111918"
        stroke-width="1"/>
</svg>
